X:1
T:Brianna Victoria
M:6/8
L:1/8
C:T. S. Macdonald
K:D
A | F2 (A A)FA | dcd AGF | E2 (G G)EG | =cG=F EDE | F2 (A A)FA | deg fdB | cAa gfe | fdd d2 ||
g | a2 (f f)ed | fad' afd | g2 (e e)d=c | BGE E2 g | a2 (f f)ed | fad' f'2 B | cAa gfe | fdd d2 |]

